X: 6786
T: Chapel Bell, The
R: jig
M: 6/8
K: Edorian
|:B2E EFA|~B2e def|edB BAF|Ade dBA|
B2E EFA|~B2e def|edB BAF|AFE EFA:|
|:B2e edB|def ~f2e|d2B BAF|Ade dBA|
B2e edB|def ~f2e|d2B BAF|AFE EFA:|

